X:1
T:RVW2/1/10 Villikins And His Dinah
T:RVW2/1/10 Villikins And His Dinah
T:Sung by Jake Willis (Crimean veteran) at Hadleigh, Sept 3rd and 4th 1907 (4 of 7)
T:Transcribed by Simon Furey and Lewis Jones
C:Transcribed by Simon Furey and Lewis Jones
L:1/8
Q:1/4=160
M:3/4
K:E
V:1 treble 
V:1
"^(Editorial suggestion)" B2 | c3 d e2 | f2 B2 f2 | e2 d2 c2 | B4 :| B2 | c4 de | f2 B2 f2 | %8
 e2 A2 B2 | A2 !fermata!G2 B2 | e2 d2 e2 | d2 B2 c2 | A2 G2 F2 | E4 |] %14

